X:1
T:Send Thy Spirit, I Beseech Thee
T:EBENEZER 87.87 D "Ton y Botel" Thomas John Williams (1890) Arr. Stephan Peters (2015)
T:Send Thy Spirit 
T:I Beseech Thee 
T:William Edward Winks (1905)
T:This score is in the Public Domain
T:This score is in the Public Domain
T:This score is in the Public Domain
C:Thomas John Williams
Z:William Edward Winks
Z:This score is in the Public Domain
%%score { ( 1 2 5 ) | ( 3 4 6 7 ) }
L:1/8
Q:1/2=80
M:6/4
K:G
V:1 treble nm="Piano"
V:2 treble 
V:5 treble 
V:3 bass 
V:4 bass 
V:6 bass 
V:7 bass 
V:1
"Em" E6"C" (E2 F2 G2) |"B/D#" F6"Em" E6 |"B" F6"B/D#" (F2 G2 A2) |"Em" (G4"B" F2)"Em" E6 | %4
w: ||||
w: ||||
w: ||||
"G" B6"D" (A2"Em" B2"D7" c2) |"Em" (B4"Am/C" A2)"Em" G6 |"B7" (A4 G2)"B/D#" F6 |"Em" [B,E]12 | %8
w: ||* * I|pray;|
w: ||* * be-|fore;|
w: |||hour;|
"Em" E6"C" (E2 F2 G2) |"B/D#" F6"Em" E6 |"B" F6"B/D#" (F2"Em" G2"B7" A2) |"Em" (G4"B" F2)"Em" E6 | %12
w: Send the * *|Com- for-|ter to * *|teach * me,|
w: Now my- * *|soul, with|joy a- * *|wa- * king,|
w: Sa- vior, * *|let them|hear Thee * *|spea- * king,|
"G" B6"D" (A2"Em" B2"D7" c2) |"Em" (B4"Am/C" A2)"Em" G6 |"B7" (A4 G2)"B/D#" F6 |"Em" [B,E]12 | %16
w: Guide me, * *|help * me|in * Thy|way.|
w: Gropes in- * *|fear- * ful|gloom- * no-|more.|
w: Come with * *|soul * co-|ver- * ting|pow'r.|
"G" B6"Em" ([EG]2"D6/F#" [FA]2"G" [GB]2) |"Dsus4" A6"D" A6 | %18
w: Sin- ful, * *|wret- ched,|
w: O the * *|bliss! My|
w: Lo, He * *|comes, the|
"Em" G6"Epower" (E2"B/F#" [^DF]2"Em" [EG]2) |"Bsus4" F6"B" F6 |"Em" [G,B,E]6"CUnison" (E2 F2 G2) | %21
w: I have * *|wan- dered|Far from * *|
w: soul, de- * *|clare it,|Say what * *|
w: ran- somed * *|own Him;|This, the * *|
"Am" A6 A6 |"Em" G6"D/F#" (A2 G2 A2) |"B" B12 |"Em" E6"C" (E2 F2 G2) |"B/D#" F6"Em" E6 | %26
w: thee in|dar- kest * *|night;|Pre- cious * *|time and|
w: God has|done for * *|thee;|Tell it * *|out, let|
w: song I|hear them * *|sing:|In my * *|heart I|
"B" F6"B/D#" (F2"Em" G2"B7" A2) |"Em" (G4"B" F2)"Em" E6 |"G" B6"D" (A2"Em" B2"D7" c2) | %29
w: ta- lents * *|squan- * dered,|Lead O * *|
w: o- thers * *|share * it,|Christ's sal- * *|
w: will en- * *|throne * Him,|Christ, my * *|
"Em" (B4"Am/C" A2)"Em" G6 |"B7" (A4 G2)"B/D#" F6 |"Em" [B,E]12 |] %32
w: lead * me|in- * to|light.|
w: va- * tion,|full * and|free.|
w: Sa- * vior|and * my|King!|
V:2
 [G,B,]6 [G,C]6 | [B,^D]6 [G,B,]6 | [B,^D]6 [B,D]6 | [B,E]4 [B,^D]2 [G,B,]6 | [DG]6 [DF]4 [DF]2 | %5
w: Send Thy|Spi- rit|I be-|seech * Thee,|Gra- cious *|
w: Thou hast|heard me;|light is|brea- * king,|Light I *|
w: Mul- ti-|tudes whom|Thou art|see- * king,|Seek for *|
 [EG]4 [CE]2 [B,E]6 | [^DF]6 D6 | x6 x6 | [G,B,]6 [G,C]6 | [B,^D]6 [G,B,]6 | %10
w: Lord, * send|while *||||
w: ne- * ver|saw *||||
w: Thee- * this|ve- ry||||
 [B,^D]6 [B,D]2 [B,E]2 [B,DF]2 | [B,E]4 [B,^D]2 [G,B,]6 | [DG]6 [DF]4 [DF]2 | [EG]4 [CE]2 [B,E]6 | %14
w: ||||
w: ||||
w: ||||
 [^DF]6 D6 | x6 x6 | [DG]6 B,6 | [DG]6 [DF]6 | [B,E]6 B,6 | [B,E]6 [B,^D]6 | x12 | [CE]6 [CE]6 | %22
w: ||||||||
w: ||||||||
w: ||||||||
 [B,E]6 [A,DF]6 | [B,^DF]12 | [G,B,]6 [G,C]6 | [B,^D]6 [G,B,]6 | [B,^D]6 [B,D]2 [B,E]2 [B,DF]2 | %27
w: |||||
w: |||||
w: |||||
 [B,E]4 [B,^D]2 [G,B,]6 | [DG]6 [DF]4 [DF]2 | [EG]4 [CE]2 [B,E]6 | [^DF]6 D6 | x6 x6 |] %32
w: |||||
w: |||||
w: |||||
V:3
 E,,2 B,,2 E,2 C,,2 G,,2 C,2 | ^D,,2 B,,2 ^D,2 E,,2 B,,2 E,2 | B,,,2 F,,2 B,,2 ^D,,2 B,,2 ^D,2 | %3
 E,,2 E,2 B,,,2 E,,2 B,,2 E,2 | G,,2 D,2 G,2 [D,,D,]2 [E,,E,]2 [F,,F,]2 | %5
 (E,2 B,,2) C,2 (E,2 B,,2 E,2) | B,,2 F,3 B, ^D,,2 B,,2 ^D,2 | x4 E,2- E,6 | %8
 E,,2 B,,2 E,2 C,,2 G,,2 C,2 | ^D,,2 B,,2 ^D,2 E,,2 B,,2 E,2 | %10
 B,,,2 F,,2 B,,2 [^D,,^D,]2 [E,,E,]2 [F,,F,]2 | E,,2 E,2 [B,,,B,,]2 E,,2 B,,2 E,2 | %12
 G,,2 D,2 G,2 [D,,D,]2 [E,,E,]2 [F,,F,]2 | (E,2 B,,2) C,2 (E,2 B,,2 E,2) | %14
 B,,2 F,2 B,2 ^D,,2 B,,2 ^D,2 | x4 E,2- E,6 | G,,2 D,2 G,2 [E,,E,]2 [F,,F,]2 [G,,G,]2 | %17
 D,,2 A,,2 D,2 D,,2 A,,2 D,2 | E,,2 B,,2 E,2 [E,,E,]2 [F,,F,]2 [G,,G,]2 | %19
 B,,,2 F,,2 B,,2 B,,,2 F,,2 B,,2 | E,,2 B,,2 E,2 [E,,E,]2 [F,,F,]2 [G,,G,]2 | x4 A,2- A,6 | %22
 [E,,B,,E,]6 [F,,D,F,]6 | B,,,2 F,,2 B,,2 ^D,6 | E,,2 B,,2 E,2 C,,2 G,,2 C,2 | %25
 ^D,,2 B,,2 ^D,2 E,,2 B,,2 E,2 | B,,,2 F,,2 B,,2 [^D,,^D,]2 [E,,E,]2 [F,,F,]2 | %27
 E,,2 E,2 [B,,,B,,]2 E,,2 B,,2 E,2 | G,,2 D,2 G,2 [D,,D,]2 [E,,E,]2 [F,,F,]2 | %29
 (E,2 B,,2) C,2 (E,2 B,,2 E,2) | B,,2 F,2 B,2 ^D,,2 B,,2 ^D,2 | x4 E,2- E,6 |] %32
V:4
 x12 | x12 | x12 | x12 | x12 | E,,4 C,,2 E,,6 | x12 | x2 B,,4- B,,6 | x12 | x12 | x12 | x12 | x12 | %13
 E,,4 C,,2 E,,6 | x12 | x2 B,,4- B,,6 | x12 | x12 | x12 | x12 | x12 | x2 E,4- E,6 | x12 | x12 | %24
 x12 | x12 | x12 | x12 | x12 | E,,4 C,,2 E,,6 | x12 | x2 B,,4- B,,6 |] %32
V:5
 x12 | x12 | x12 | x12 | x12 | x12 | B,4 x2 B,6 | x12 | x12 | x12 | x12 | x12 | x12 | x12 | %14
 B,4 x2 B,6 | x12 | x12 | x12 | x12 | x12 | x12 | x12 | x12 | x12 | x12 | x12 | x12 | x12 | x12 | %29
 x12 | B,4 x2 B,6 | x12 |] %32
V:6
 x12 | x12 | x12 | x12 | x12 | x12 | x12 | E,,6- E,,6 | x12 | x12 | x12 | x12 | x12 | x12 | x12 | %15
 E,,6- E,,6 | x12 | x12 | x12 | x12 | x12 | A,,6 A,,6 | x12 | x12 | x12 | x12 | x12 | x12 | x12 | %29
 x12 | x12 | E,,6- E,,6 |] %32
V:7
 x12 | x12 | x12 | x12 | x12 | x12 | x12 | G,6 G,6 | x12 | x12 | x12 | x12 | x12 | x12 | x12 | %15
 G,6 G,6 | x12 | x12 | x12 | x12 | x12 | x12 | x12 | x12 | x12 | x12 | x12 | x12 | x12 | x12 | %30
 x12 | G,6 G,6 |] %32

